!!!!SEGMENT: pl-stab--75a--007_rodowski-aleksander--missa-pastorales-agnus-dei.krn
!!!cenid: 18xx:3410
!!!COM: Rodowski, Aleksander
!!!COM-rismID: pe30009627
!!!CDT: <1790->1810
!!!CNT: Polish
!!!OPR: Missa Pastorales
!!!OTL: Agnus Dei
!!!OMV: 007
!!!PDT: 1850
!!!AGN:
!!!SMS-siglum: PL-STAb
!!!SMS-shelfmark: 75a
!!!SMS-shelfwork: 001-007 M
!!!SMS-variant: Partytura: PL-STAb 75a:11
!!!SMS-altvar: Canto: PL-STAb 75a:6-7, Organo.: PL-STAb 75a:9
!!!NIFC-rismSourceID: 301050718
!!!NIFC-rismChildID: 301050718
!!!NIFC-islandoraID: pl-stab:4458
!!!URL-pdf-islandora: https://repozytorium.nifc.pl/islandora/object/pl-stab%3A4458/datastream/PDF/view
!!!URL-scan: https://polish.musicsources.pl/pl/lokalizacje/galeria/rekopisy/4548/11 @EN{Scan on Polish Music Sources Website} @PL{Skany w portalu Dziedzictwo Muzyki Polskiej w otwartym dostępie}
!!!ONB-nifc: UWAGA: na podstawie partytury (s. 3-5, 10-11). W źródle znajdują się także głosy. Proszę o wypełnienie pól SMS:variant i SMS:altvar. UWAGA: części Mszy: 1. Kyrie, 2. Gloria, 3. Credo, 4. Et incarnatus, 5. Sanctus, 6. Benedictus, 7. Agnus Dei
!!!OMD: Allegro
!!!AIN: 1 bass 1 organ 1 soprn
!!!key: C
**kern	**kern	**kern	**kern	**text
*part3	*part3	*part2	*part1	*part1
*staff4	*staff3	*staff2	*staff1	*staff1
*I"Organ	*	*I"Basſ	*I"Cant	*
*Iorgan	*	*Ibass	*Isoprn	*
*ICklav	*	*ICvox	*ICvox	*
*clefF4	*clefG2	*clefF4	*clefG2	*
*k[]	*k[]	*k[]	*k[]	*
*C:	*C:	*C:	*C:	*
*M2/4	*M2/4	*M2/4	*M2/4	*
*all\right	*all\right	*all\right	*all\right	*
=1	=1	=1	=1	=1
4C 4CC/	4cc 4c\	4C\	4cc\	A-
4E 4EE\	4ee 4e\	4E\	4ee\	-gnus
=2	=2	=2	=2	=2
4.G 4.GG\	4.gg 4.g\	4.G\	4.gg\	De-
8E 8EE\	8ee 8e\	8E\	8ee\	-i
=3	=3	=3	=3	=3
8CL 8CC/	(16cc\LL	8C\	8cc\	qui
.	16b\	.	.	.
8CJ 8CC/	16cc\	8C\	8cc\	to-
.	16dd\JJ)	.	.	.
8EL 8EE\	(16ee\LL	8E\	8cc\	-lis
.	16dd\	.	.	.
8EJ 8EE\	16ee\	8E\	8ee\	pe-
.	16ff\JJ)	.	.	.
=4	=4	=4	=4	=4
4.G 4.GG\	4.gg 4.g\	4.G\	4.gg\	-ca-
8E 8EE\	8ee 8e\	8E\	8ee\	-ta
=5	=5	=5	=5	=5
8FL 8FF\	8ffL 8f\	8F\L	8ff\L	mun-
8D\	8dd 8d\	8D\	8dd\	.
8C\	8cc 8c\	8C\	8cc\	.
8BB\J	8bJ 8B\	8BB\J	8b\J	.
=6	=6	=6	=6	=6
4C 4CC\	4cc 4c\	4C\	4cc\	-di
4r	4r	4r	4r	.
=7	=7	=7	=7	=7
*^	*^	*	*	*
!	!LO:N:xstem	!	!	!	!	!
4G 4C/	2C/	4cc 4e\	4ryy	2r	2r	.
4G 4C/	.	8ccL 8e\	4e\	.	.	.
.	.	16cc\L	.	.	.	.
.	.	16dd\JJ	.	.	.	.
=8	=8	=8	=8	=8	=8	=8
!	!LO:N:xstem	!	!	!	!	!
4G 4C/	2C/	8eeL\	4e\	2r	2r	.
.	.	16ee\L	.	.	.	.
.	.	16dd\JJ	.	.	.	.
4G 4C/	.	4cc\	4e\	.	.	.
*	*	*v	*v	*	*	*
!!LO:LB:g=original
=9	=9	=9	=9	=9	=9
!	!LO:N:xstem	!	!	!	!
4F 4GG/	2GG/	8ff\L	2r	2r	.
.	.	16ff\L	.	.	.
.	.	16ee\JJ	.	.	.
4F 4GG/	.	8dd\L	.	.	.
.	.	16dd\L	.	.	.
.	.	16cc\JJ	.	.	.
=10	=10	=10	=10	=10	=10
!	!LO:N:xstem	!	!	!	!
4F 4GG/	2GG/	8b\L	2r	2r	.
.	.	8gg\	.	.	.
!	!	!LO:TX:a:t=P:problem=# above	!	!	!
4F 4GG/	.	8g#X\	.	.	.
.	.	8gg#X\J	.	.	.
=11	=11	=11	=11	=11	=11
*	*	*^	*	*	*
!	!LO:N:xstem	!	!	!	!	!
4G 4E 4C/	2C/	4cc 4e\	4ryy	2r	2r	.
4G 4C/	.	8ccL\	4e\	.	.	.
.	.	16cc\L	.	.	.	.
.	.	16dd\JJ	.	.	.	.
=12	=12	=12	=12	=12	=12	=12
!	!LO:N:xstem	!	!	!	!	!
4G 4C/	2C/	8eeL\	4e\	2r	2r	.
.	.	16ee\L	.	.	.	.
.	.	16dd\JJ	.	.	.	.
4G 4C/	.	4cc 4e\	4ryy	.	.	.
*	*	*v	*v	*	*	*
=13	=13	=13	=13	=13	=13
!	!LO:N:xstem	!	!	!	!
4F 4GG/	2GG/	8b\L	2r	2r	.
.	.	8bb\	.	.	.
!	!	!LO:TX:a:t=P:problem=# above	!	!	!
4F 4GG/	.	8g#X\	.	.	.
.	.	8gg#X\J	.	.	.
=14	=14	=14	=14	=14	=14
4G 4C/	4ryy	4ee\	2r	2r	.
!	!	!LO:N:acc=#	!	!	!
.	.	8qbbn/	.	.	.
4c 4G 4E/	4C\	4ccc\	.	.	.
*v	*v	*	*	*	*
=15||	=15||	=15||	=15||	=15||
4G 4GG\	4g\	4GG/	4g/	mi-
4B 4BB\	4b\	4BB/	4b/	-se-
=16	=16	=16	=16	=16
4.d 4.D\	4.dd\	4.D\	4.dd\	-re-
8B 8BB\	8b\	8BB/	8b\	-re
=17	=17	=17	=17	=17
8GL 8GG\	8g\L	8GG/	8g/	mi-
8GJ 8GG\	8g\J	8GG/	8g/	-se-
8BL 8BB\	8b\L	8BB/	8b\	-re-
8BJ 8BB\	8b\J	8BB/	8b\	-re
!!LO:PB:g=original
=18	=18	=18	=18	=18
*	*	*^	*	*
8A 8E 8C\	8cc\L	8c\L	8D\	8cc\L	no-
8r	8a\J	8c\J	8r	8a\J	.
8A 8F#X 8D\	8ff#X\L	8d\L	8D\	8ff#X\L	.
8r	8aa\J	8f#X\J	8ryy	8aa\J	.
=19	=19	=19	=19	=19	=19
4G 4D 4GG\	4gg 4b\	4B\	4GG/	4gg\	-bis
4r	(16gg\LL	4r	4ryy	(16gg\LL	.
.	16ee\	.	.	16ee\	.
.	16ffn\	.	.	16ffn\	.
.	16dd\JJ)	.	.	16dd\JJ)	.
*	*	*v	*v	*	*
=20	=20	=20	=20	=20
4C 4CC/	4cc 4c\	4C\	4cc\	a-
4E 4EE\	4ee 4e\	4E\	4ee\	-gnus
=21	=21	=21	=21	=21
4.G 4.GG\	4.gg 4.g\	4.G\	4.gg\	De-
8E 8EE\	8ee 8e\	8E\	8ee\	-i
=22	=22	=22	=22	=22
8CL 8CC/	(16cc\LL	8C\	8cc\	qui
.	16b\	.	.	.
8CJ 8CC/	16cc\	8C\	8cc\	to-
.	16dd\JJ)	.	.	.
8EL 8EE\	(16ee\LL	8E\	8cc\	-lis
.	16dd\	.	.	.
8EJ 8EE\	16ee\	8E\	8ee\	pe-
.	16ff\JJ)	.	.	.
=23	=23	=23	=23	=23
4.G 4.GG\	4.gg 4.g\	4.G\	4.gg\	-ca-
8E 8EE\	8ee 8e\	8E\	8ee\	-ta
=24	=24	=24	=24	=24
8FL 8FF\	8ffL 8f\	8F\L	8ff\L	mun-
8D\	8dd 8d\	8D\	8dd\	.
!	!	!	!LO:TX:a:t=d	!
8C\	8cc 8c\	8C\	8cc\	.
8BB\J	8bJ 8B\	8BB\J	8b\J	.
=25	=25	=25	=25	=25
4C 4CC/	4cc 4c\	4C/	4cc\	-di
4r	4r	4r	4r	.
=26	=26	=26	=26	=26
*^	*	*	*	*
!	!LO:N:xstem	!	!	!	!
4G 4C/	2C/	4cc\	2r	2r	.
!	!	!LO:N:vis=8.	!	!	!
4G 4C/	.	(8cc\L	.	.	.
.	.	16cc\L	.	.	.
.	.	16dd\JJ)	.	.	.
=27	=27	=27	=27	=27	=27
!	!LO:N:xstem	!	!	!	!
4G 4C/	2C/	8ee\L	2r	2r	.
.	.	(16ee\L	.	.	.
.	.	16dd\JJ	.	.	.
4G 4C/	.	4cc\)	.	.	.
!!LO:LB:g=original
=28	=28	=28	=28	=28	=28
!	!LO:N:xstem	!	!	!	!
4F 4GG/	2GG/	8ff\L	2r	2r	.
.	.	(16ff\L	.	.	.
.	.	16ee\JJ)	.	.	.
4F 4GG/	.	8dd\L	.	.	.
.	.	(16dd\L	.	.	.
.	.	16cc\JJ)	.	.	.
=29	=29	=29	=29	=29	=29
!	!LO:N:xstem	!	!	!	!
4F 4GG/	2GG/	8b\L	2r	2r	.
.	.	8gg\	.	.	.
4F 4GG/	.	8g\	.	.	.
.	.	8qff#X/	.	.	.
.	.	8gg\J	.	.	.
=30	=30	=30	=30	=30	=30
!	!LO:N:xstem	!	!	!	!
4G 4C/	2C/	4cc\	2r	2r	.
4G 4C/	.	8cc\L	.	.	.
.	.	16cc\L	.	.	.
.	.	16dd\JJ	.	.	.
=31	=31	=31	=31	=31	=31
!	!LO:N:xstem	!	!	!	!
4G 4C/	2C/	8ee\L	2r	2r	.
.	.	16ee\L	.	.	.
.	.	16dd\JJ	.	.	.
4G 4C/	.	4cc\	.	.	.
=32	=32	=32	=32	=32	=32
!	!LO:N:xstem	!	!	!	!
4F 4GG/	2GG/	8b\L	2r	2r	.
.	.	8gg\	.	.	.
4F 4GG/	.	8g\	.	.	.
.	.	8qff#X/	.	.	.
.	.	8gg\J	.	.	.
=33	=33	=33	=33	=33	=33
!	!LO:N:xstem	!	!	!	!
4G 4C/	2C/	8cc\L	2r	2r	.
!	!	!LO:N:acc=#	!	!	!
.	.	8qbbn/	.	.	.
.	.	8ccc\J	.	.	.
!LO:TX:a:i:t=Fine d&colon; 19 Grud&colon; 1850 r\nfine Walen&colon; Czajkowski	!	!	!	!	!
!LO:TX:a:i:t=Donne ut Kyrie	!	!	!	!	!
4c 4G 4E 4C/	.	4cc\	.	.	.
*v	*v	*	*	*	*
==	==	==	==	==
*-	*-	*-	*-	*-
!!!system-decoration: <(s1,s2)>{(s3,s4)}
!!!ENC: Anastazja Marusiak
!!!END: 2021-11-17
!!!ENC: Andrzej Kubiczek
!!!END: 2021-12-12
!!!YEC: Copyright 2022 Narodowy Instytut Fryderyka Chopina (https://polishscores.org)
!!!YEM: License CC-BY-4.0 (https://creativecommons.org/licenses/by/4.0)
